X:1
T:Mrs. Marr's (Royal Music Salon, Aberdeen)
T:Mrs. Marr's (Royal Music Salon, Aberdeen)
T:Alexander Walker
C:Alexander Walker
L:1/8
M:2/2
K:Cmin
V:1 treble 
V:1
 g | e>c c/c/c{d} c=Bc=A | BdFd DB,B,d | e>c c/c/c ecBG | EGFG ECCg | e>c c/c/c{d} c=Bc=A | %6
 BdFd DB,B,d | efge dgbg | fdBd ecc || g | ecgc egcg | dBfB dfBf | ecgc egcc' | bgfd eccg | %14
 e>c c/c/c GcEc | DBFB DBDB, | ecdB cABF | GEFD ECC || %18

